!!!!SEGMENT: pl-kk--kk-i-3--053-001_anonim--sabbato-de-b-m-v-kyrie.krn
!!!cenid: 15xx:711
!!!COM: Anonim
!!!COM-rismID: pe30004985
!!!CDT:
!!!CNT:
!!!OPR: Sabbato de B.M.V
!!!OTL: Kyrie
!!!OMV: 001
!!!PDT:
!!!AGN:
!!!SMS-siglum: PL-Kk
!!!SMS-shelfmark: Kk.I.3
!!!SMS-shelfwork: 053-001 M
!!!SMS-variant:
!!!SMS-altvar:
!!!NIFC-rismSourceID: 1001145551
!!!NIFC-islandoraID: pl-kk:1170
!!!URL-pdf-islandora: https://repozytorium.nifc.pl/islandora/object/pl-kk%3A1170/datastream/PDF/view
!!!URL-scan: https://polish.musicsources.pl/pl/lokalizacje/galeria/rekopisy/5919 @EN{Scan on Polish Music Sources Website} @PL{Skany w portalu Dziedzictwo Muzyki Polskiej w otwartym dostępie}
!!!ONB-nifc: UWAGA: Discantus (s. 147r-148v, skan 0149-0151), Tenor (s. 108r-109r, skan 0280-0281), Bassus (s. 141r-142v, skan 0444-0446)
!!!AIN: 1 alto 1 bass 1 tenor
!!!key: d:dor
**kern	**text	**kern	**text	**kern	**text
*part3	*part3	*part2	*part2	*part1	*part1
*staff3	*staff3	*staff2	*staff2	*staff1	*staff1
*I"[Bassus]	*	*I"[Tenor]	*	*I"[Discantus]	*
*Ibass	*	*Itenor	*	*Ialto	*
*ICvox	*	*ICvox	*	*ICvox	*
*I'[B]	*	*I'[T]	*	*I'[A]	*
*clefF4	*	*clefC4	*	*clefC3	*
*k[b-]	*	*k[]	*	*k[]	*
*d:dor	*	*d:dor	*	*d:dor	*
*M2/1	*	*M2/1	*	*M2/1	*
*met(C|)	*	*met(C|)	*	*met(C|)	*
=1-	=1-	=1-	=1-	=1-	=1-
!LO:TX:t=P:problem=brak metrum	!	!LO:TX:t=P:problem=metrum przed kluczem	!	!LO:TX:t=P:problem=brak metrum	!
1D	Kÿ-	1D	Kÿ-	1d	Kÿ-
1BB-	-ri-	0F	.	2d\	-ri-
.	.	.	.	1d\	-e
=2-	=2-	=2-	=2-	=2-	=2-
2BB-/	-e	.	.	.	.
2D/	.	.	.	2f\	.
*	*	*lig	*	*	*
2C/	.	1G	.	2e\	.
2BB-/	.	.	.	2d\	.
=3-	=3-	=3-	=3-	=3-	=3-
2AA/	.	1A	.	2c/	.
2FF/	.	.	.	1f	.
*	*	*Xlig	*	*	*
*	*	*lig	*	*	*
1GG	.	1G	-ri-	.	.
.	.	.	.	1e\	.
=4-	=4-	=4-	=4-	=4-	=4-
1C	.	1E	.	.	.
.	.	.	.	1c	.
*	*	*Xlig	*	*	*
*	*	*lig	*	*	*
2FF/	.	1F	.	.	.
2F\	.	.	.	1d\	.
=5-	=5-	=5-	=5-	=5-	=5-
1G	.	1E	-e	.	.
.	.	.	.	2c/	.
*	*	*Xlig	*	*	*
*	*	*	*	*custos:d	*
!	!	!	!	!LO:LB:g=original	!
1F	.	1D	.	1d	.
*custos:F	*	*	*	*	*
=6-	=6-	=6-	=6-	=6-	=6-
*	*	*lig	*	*	*
!LO:LB:g=original	!	!	!	!	!
2F\	.	1F	.	2d\	.
2FF/	.	.	.	1c	.
1GG	.	1D	.	.	.
!	!	!	!	!LO:SIC:v:s=2B-	!
.	.	.	.	2B/	.
*	*	*Xlig	*	*	*
=7-	=7-	=7-	=7-	=7-	=7-
1AA	.	1C	.	1c	.
*	*	*lig	*	*	*
1BB-	.	1D	.	2F/	.
.	.	.	.	2G/	.
=8-	=8-	=8-	=8-	=8-	=8-
2FF/	.	1C	.	2A/	.
2AA/	.	.	.	1c	.
*	*	*Xlig	*	*	*
1GG	.	1D	.	.	.
!	!	!	!	!LO:SIC:v:s=2B-	!
.	.	.	.	2B/	.
*	*	*custos:F	*	*	*
=9-	=9-	=9-	=9-	=9-	=9-
*	*	*lig	*	*	*
!	!	!LO:LB:g=original	!	!	!
1FF	.	1F	e-	2c/	.
.	.	.	.	2A/	.
1C	.	1E	.	1G	.
*	*	*Xlig	*	*	*
=10-	=10-	=10-	=10-	=10-	=10-
*lig	*	*	*	*	*
1D	.	1F	.	2F/	.
.	.	.	.	1f	.
*	*	*lig	*	*	*
1GG	.	1G	-leÿ-	.	.
.	.	.	.	2d\	.
*Xlig	*	*	*	*	*
=11-	=11-	=11-	=11-	=11-	=11-
*lig	*	*	*	*	*
1C	e-	1E	.	1e	.
*	*	*Xlig	*	*custos:A	*
!	!	!	!	!LO:LB:g=original	!
1D	.	1F	.	2A/	e-
.	.	.	.	1d\	-leÿ-
*Xlig	*	*	*	*	*
=12-	=12-	=12-	=12-	=12-	=12-
*	*	*lig	*	*	*
1AA	-leÿ-	1E	-son	.	.
.	.	.	.	2c/	-ſon.
1D	-ſon	1D	.	1d	.
*custos:A	*	*Xlig	*	*	*
=13-	=13-	=13-	=13-	=13-	=13-
!LO:LB:g=original	!	!	!	!	!
1A	Kÿ-	1AA	kÿ-	0e	Kÿ-
*	*	*lig	*	*	*
1G	-ri-	1C	-ri-	.	.
=14-	=14-	=14-	=14-	=14-	=14-
2F\	-e	1D	.	1d	-ri-
1B-X	.	.	.	.	.
*	*	*Xlig	*	*	*
*	*	*lig	*	*	*
.	.	1D	-e	2d\	-e
1A\	.	.	.	1f\	.
=15-	=15-	=15-	=15-	=15-	=15-
.	.	1C	.	.	.
2G\	.	.	.	2e\	.
*	*	*Xlig	*	*	*
*	*	*custos:D	*	*	*
*	*	*lig	*	*	*
!	!	!LO:LB:g=original	!	!	!
1F	.	1D	e-	2d\	.
.	.	.	.	1f\	.
=16-	=16-	=16-	=16-	=16-	=16-
1G	.	1C	.	.	.
.	.	.	.	2e\	.
*	*	*Xlig	*	*	*
*	*	*lig	*	*	*
1F	.	1D	.	1f	.
=17-	=17-	=17-	=17-	=17-	=17-
2BB-X/	.	1F	.	1d	.
2D\	.	.	.	.	.
*	*	*Xlig	*	*	*
*	*	*lig	*	*custos:e	*
!	!	!	!	!LO:LB:g=origianl	!
1C	.	1E	.	1e	.
=18-	=18-	=18-	=18-	=18-	=18-
2AA/	.	1F	.	2c/	.
2BB-/	.	.	.	1d	.
*	*	*Xlig	*	*	*
*custos:GG	*	*lig	*	*	*
!LO:LB:g=original	!	!	!	!	!
2GG/	.	1G	-leÿ-	.	.
1G\	.	.	.	2d\	.
=19-	=19-	=19-	=19-	=19-	=19-
!	!	!	!	!LO:SIC:v:s=1B-	!
.	.	1E	.	1B	.
2G\	.	.	.	.	.
*	*	*Xlig	*	*	*
2A\	e-	1F	-son	2A/	.
2F\	-leÿ-	.	.	1d\	e-
=20-	=20-	=20-	=20-	=20-	=20-
*	*	*lig	*	*	*
1G	-ſon	1E	.	.	.
.	.	.	.	2c/	-leÿ-
1F	.	1D	.	1d	-ſon
*	*	*Xlig	*	*	*
=21-	=21-	=21-	=21-	=21-	=21-
1D	Kÿ-	1D	kÿ-	1d	Kÿ-
1BB-	-ri-	0F	.	2d\	-ri-
.	.	.	.	1d\	-e
=22-	=22-	=22-	=22-	=22-	=22-
2BB-/	-e	.	.	.	.
2D/	.	.	.	2f\	.
*	*	*custos:G	*	*	*
*	*	*lig	*	*	*
!	!	!LO:LB:g=original	!	!	!
2C/	.	1G	.	2e\	.
2BB-/	.	.	.	2d\	.
*	*	*	*	*custos:c	*
=23-	=23-	=23-	=23-	=23-	=23-
!	!	!	!	!LO:LB:g=original	!
2AA/	.	1A	.	2c/	.
2FF/	.	.	.	1f	.
*	*	*Xlig	*	*	*
*	*	*lig	*	*	*
1GG	.	1G	-ri-	.	.
.	.	.	.	1e\	.
*custos:C	*	*	*	*	*
=24-	=24-	=24-	=24-	=24-	=24-
!LO:LB:g=original	!	!	!	!	!
1C	.	1E	.	.	.
.	.	.	.	1c	.
*	*	*Xlig	*	*	*
*	*	*lig	*	*	*
2FF/	.	1F	-e	.	.
2F\	.	.	.	1d\	.
=25-	=25-	=25-	=25-	=25-	=25-
1G	.	1E	.	.	.
.	.	.	.	2c/	.
*	*	*Xlig	*	*	*
1F	.	1D	.	1d	.
=26-	=26-	=26-	=26-	=26-	=26-
*	*	*lig	*	*	*
2F\	.	1F	.	2d\	.
2FF/	.	.	.	1c	.
1GG	.	1D	.	.	.
!	!	!	!	!LO:SIC:v:s=2B-	!
.	.	.	.	2B/	.
*	*	*Xlig	*	*	*
=27-	=27-	=27-	=27-	=27-	=27-
1AA	.	1C	.	1c	.
*	*	*lig	*	*	*
1BB-	.	1D	.	2F/	.
.	.	.	.	2G/	.
=28-	=28-	=28-	=28-	=28-	=28-
2FF/	.	1C	.	2A/	.
2AA/	.	.	.	1c	.
*	*	*Xlig	*	*	*
1GG	.	1D	.	.	.
!	!	!	!	!LO:SIC:v:s=2B-	!
.	.	.	.	2B/	.
*	*	*	*	*custos:c	*
=29-	=29-	=29-	=29-	=29-	=29-
*	*	*lig	*	*	*
!	!	!	!	!LO:PB:g=original	!
1FF	.	1F	e-	2c/	.
.	.	.	.	2A/	.
1C	.	1E	.	1G	.
*	*	*Xlig	*	*	*
*	*	*custos:F	*	*	*
=30-	=30-	=30-	=30-	=30-	=30-
!	!	!LO:LB:g=original	!	!	!
1D	.	1F	.	2F/	.
.	.	.	.	1f	.
*	*	*lig	*	*	*
1GG	.	1G	-leÿ-	.	.
.	.	.	.	2d\	.
*custos:C	*	*	*	*	*
=31-	=31-	=31-	=31-	=31-	=31-
!LO:PB:g=original	!	!	!	!	!
1C	e-	1E	.	1e	.
*lig	*	*Xlig	*	*	*
1D	-leÿ-	1F	-ſon.	2A/	e-
.	.	.	.	1d\	-leÿ-
=32-	=32-	=32-	=32-	=32-	=32-
*	*	*lig	*	*	*
1AA	.	1E	.	.	.
.	.	.	.	2c/	-ſon.
*Xlig	*	*	*	*	*
1D	-ſon.	[1Dl	.	[1dl	.
*	*	*Xlig	*	*	*
=33-	=33-	=33-	=33-	=33-	=33-
0Dl	.	0D]	.	0d]	.
=34||-	=34||-	=34||-	=34||-	=34||-	=34||-
*k[]	*	*	*	*	*
!LO:TX:t=P:problem=brak kasonika przy kluczu	!	!	!	!	!
1AA	Chri-	1A	Chri-	1e	Chri-
*	*	*lig	*	*	*
1D	-ste	1A	-ſte	1f	-ſte
=35-	=35-	=35-	=35-	=35-	=35-
2GG/	.	1G	.	2d\	.
1C	.	.	.	1e	.
*	*	*Xlig	*	*	*
!	!	!LO:TX:t=P:problem=nieczytelne źródło	!	!	!
.	.	1ryy	.	.	.
2C/	.	.	.	1g\	.
=36-	=36-	=36-	=36-	=36-	=36-
2GG/	.	1ryy	.	.	.
1G	.	.	.	2d\	.
*	*	*lig	*	*custos:e	*
!	!	!	!	!LO:LB:g=original	!
.	.	1A	.	2e\	.
2F\	.	.	.	2f\	.
=37-	=37-	=37-	=37-	=37-	=37-
1G	.	1G	.	2d\	.
.	.	.	.	1g	.
*	*	*Xlig	*	*	*
*	*	*custos:A	*	*	*
*	*	*lig	*	*	*
!	!	!LO:PB:g=original	!	!	!
2D/	.	1A	.	.	.
2F\	.	.	.	1f\	.
=38-	=38-	=38-	=38-	=38-	=38-
1C	.	1G	.	.	.
.	.	.	.	2e\	.
*	*	*Xlig	*	*	*
1D	.	0F	.	1f	.
*custos:BB	*	*	*	*	*
=39-	=39-	=39-	=39-	=39-	=39-
!LO:LB:g=original	!	!	!	!	!
2BB/	.	.	.	2d\	.
2AA/	.	.	.	2c\	.
*	*	*lig	*	*	*
1GG	.	1G	.	1B	.
=40-	=40-	=40-	=40-	=40-	=40-
2FF/	.	1A	.	1A	.
1F	e-	.	.	.	.
*	*	*Xlig	*	*	*
*	*	*lig	*	*	*
.	.	1B	e-	1G	.
2E\	-leÿ-	.	.	.	.
=41-	=41-	=41-	=41-	=41-	=41-
1F	-ſon	1A	-leÿ-	2F/	e-
.	.	.	.	1f	-leÿ-
*	*	*Xlig	*	*	*
*	*	*lig	*	*	*
1C	.	1G	-ſon	.	.
.	.	.	.	2e\	-ſon
=42-	=42-	=42-	=42-	=42-	=42-
1FF	.	1A	.	1f	.
*	*	*Xlig	*	*	*
*	*	*lig	*	*	*
1FF	Chri-	1A	Chri-	1f	Chri-
*	*	*	*	*custos:e	*
=43-	=43-	=43-	=43-	=43-	=43-
*lig	*	*	*	*	*
!	!	!	!	!LO:LB:g=original	!
1C	-ſte	1G	.	1e	-ſte
*	*	*Xlig	*	*	*
1D	.	1F	.	1d	.
*Xlig	*	*	*	*	*
=44-	=44-	=44-	=44-	=44-	=44-
*	*	*lig	*	*	*
2BB/	.	1G	.	2d\	.
1C	.	.	.	1e	.
.	.	1E	.	.	.
1AA/	.	.	.	1c\	.
*	*	*Xlig	*	*	*
=45-	=45-	=45-	=45-	=45-	=45-
.	.	1F	.	.	.
2BB/	.	.	.	2d\	.
*	*	*custos:E	*	*	*
*	*	*lig	*	*	*
!	!	!LO:LB:g=original	!	!	!
2C/	.	1E	-ſte	2e\	.
2AA/	.	.	.	2c\	.
=46-	=46-	=46-	=46-	=46-	=46-
1BB	.	1D	.	1d	.
*	*	*Xlig	*	*	*
*	*	*lig	*	*	*
2AA/	.	1F	.	2c\	.
2FF/	.	.	.	1c\	.
=47-	=47-	=47-	=47-	=47-	=47-
1GG	.	1D	.	.	.
.	.	.	.	2B/	.
*custos:AA	*	*Xlig	*	*	*
!LO:LB:g=original	!	!	!	!	!
1AA	.	1C	.	2c\	.
.	.	.	.	2F/	.
=48-	=48-	=48-	=48-	=48-	=48-
*	*	*lig	*	*	*
1GG	.	1D	.	1G	.
1G	.	1C	.	1E	.
*	*	*Xlig	*	*	*
=49-	=49-	=49-	=49-	=49-	=49-
2F\	.	1D	.	2D/	.
1D	.	.	.	1d	.
*	*	*lig	*	*	*
.	.	1F	e-	.	.
2F\	.	.	.	2A/	.
*	*	*	*	*custos:B	*
=50-	=50-	=50-	=50-	=50-	=50-
!	!	!	!	!LO:LB:g=original	!
2G\	.	1E	.	2B/	.
2C/	.	.	.	2c/	.
*	*	*Xlig	*	*	*
1D	.	1F	.	1A	.
=51-	=51-	=51-	=51-	=51-	=51-
*	*	*lig	*	*	*
2GG/	.	1G	-leÿ-	2B/	.
1C	.	.	.	1G	.
.	.	1E	.	.	.
1AA/	.	.	.	2c/	.
*	*	*Xlig	*	*	*
=52-	=52-	=52-	=52-	=52-	=52-
.	.	1F	.	2A/	e-
2FF/	e-	.	.	1d	-leÿ-
*	*	*lig	*	*	*
2GG/	-leÿ-	1E	-ſon.	.	.
2AA/	-ſon	.	.	2c/	-ſon
=53-	=53-	=53-	=53-	=53-	=53-
1BB	.	1D	.	1d	.
*	*	*Xlig	*	*	*
*	*	*custos:A	*	*	*
!	!	!LO:LB:g=original	!	!	!
1AA	Chri-	1A	Chri-	1e	Chri-
=54-	=54-	=54-	=54-	=54-	=54-
1D	-ſte	1A	-ſte	1f	-ſte
*custos:GG	*	*	*	*	*
!LO:LB:g=original	!	!	!	!	!
2GG/	.	0G	.	2d\	.
1C/	.	.	.	1e\	.
=55-	=55-	=55-	=55-	=55-	=55-
.	.	.	.	.	.
2C/	.	.	.	1g	.
*	*	*lig	*	*	*
2GG/	.	1B	.	.	.
1G\	.	.	.	2d\	.
=56-	=56-	=56-	=56-	=56-	=56-
.	.	1A	.	2e\	.
*	*	*	*	*custos:f	*
!	!	!	!	!LO:LB:g=original	!
2G\	.	.	.	2f\	.
*	*	*Xlig	*	*	*
*	*	*lig	*	*	*
1G	.	1G	.	2d\	.
.	.	.	.	1g\	.
=57-	=57-	=57-	=57-	=57-	=57-
2D/	.	1A	.	.	.
2F\	.	.	.	1f	.
*	*	*Xlig	*	*	*
*	*	*lig	*	*	*
1C	.	1G	.	.	.
.	.	.	.	2e\	.
=58-	=58-	=58-	=58-	=58-	=58-
1D	.	1F	.	1f	.
*	*	*Xlig	*	*	*
*	*	*lig	*	*	*
2BB/	.	1F	e-	2d\	.
2AA/	.	.	.	2c/	.
=59-	=59-	=59-	=59-	=59-	=59-
1GG	.	1G	.	1B	.
*	*	*Xlig	*	*	*
*	*	*lig	*	*	*
2FF/	.	1A	.	1A	.
1F\	e-	.	.	.	.
=60-	=60-	=60-	=60-	=60-	=60-
.	.	1B	.	1G	.
2E\	-leÿ-	.	.	.	.
*	*	*Xlig	*	*	*
*	*	*lig	*	*	*
1F	-ſon	1A	-leÿ-	2F/	e-
.	.	.	.	1f\	-leÿ-
=61-	=61-	=61-	=61-	=61-	=61-
1C	.	1G	.	.	.
.	.	.	.	2e\	-ſon.
*	*	*Xlig	*	*	*
!LO:N:vis=00	!	!LO:N:vis=00	!	!LO:N:vis=00	!
1FF	.	1A	-ſon.	1f	.
*custos:F	*	*custos:A	*	*	*
=62||-	=62||-	=62||-	=62||-	=62||-	=62||-
!LO:LB:g=original	!	!LO:LB:g=original	!	!	!
*k[b-]	*	*	*	*	*
*lig	*	*	*	*	*
1F	Kÿ-	1A	Kÿ-	1c	Kÿ-
*	*	*lig	*	*	*
1E	-ri-	1c	-ri-	1e	-[ri-
*Xlig	*	*	*	*	*
=63-	=63-	=63-	=63-	=63-	=63-
2D/	-e	1d	.	1f	-e]
2BB-/	.	.	.	.	.
*	*	*Xlig	*	*custos:f	*
*	*	*lig	*	*lig	*
!	!	!	!	!LO:PB:g=original	!
1D	.	1d	-e	1f	.
=64-	=64-	=64-	=64-	=64-	=64-
2AA/	.	1c	.	1e	.
2C/	.	.	.	.	.
*	*	*Xlig	*	*Xlig	*
*	*	*lig	*	*	*
1BB-	.	1d	.	1f	.
=65-	=65-	=65-	=65-	=65-	=65-
2FF/	.	1A	.	2f\	.
2F\	.	.	.	2c/	.
*	*	*Xlig	*	*	*
*	*	*lig	*	*	*
2E\	.	1G	.	2e\	.
2G\	.	.	.	2d/	.
=66-	=66-	=66-	=66-	=66-	=66-
*lig	*	*	*	*	*
1F	.	1A	.	1f	.
*	*	*Xlig	*	*	*
*	*	*lig	*	*	*
!	!	!LO:SIC:v:s=1B-	!	!	!
1BB-	.	1B	.	2f\	.
.	.	.	.	2d\	.
*Xlig	*	*	*	*	*
=67-	=67-	=67-	=67-	=67-	=67-
1F	.	1A	.	2c/	.
.	.	.	.	2d\	.
*	*	*Xlig	*	*	*
*	*	*lig	*	*	*
1C	.	1G	.	2e\	.
.	.	.	.	1g\	.
=68-	=68-	=68-	=68-	=68-	=68-
1FF	.	1A	.	.	.
.	.	.	.	1f	.
*	*	*Xlig	*	*	*
1C	.	1G	.	.	.
.	.	.	.	2e\	.
*custos:D	*	*	*	*	*
=69-	=69-	=69-	=69-	=69-	=69-
!LO:PB:g=original	!	!	!	!	!
1D	.	0F	e-	1f	.
2D/	.	.	.	2f\	.
1BB-/	.	.	.	1d\	.
*	*	*custos:G	*	*	*
=70-	=70-	=70-	=70-	=70-	=70-
*	*	*lig	*	*	*
!	!	!LO:LB:g=original	!	!	!
.	.	1G	.	.	.
2C/	.	.	.	2e\	.
2AA/	.	1A	.	2c/	.
*	*	*	*	*custos:A	*
!	!	!	!	!LO:LB:g=original	!
2FF/	.	.	.	1A/	.
*	*	*Xlig	*	*	*
=71-	=71-	=71-	=71-	=71-	=71-
*	*	*lig	*	*	*
!	!	!LO:SIC:v:s=1B-	!	!	!
1GG	.	1B	.	.	.
.	.	.	.	2G/	.
!	!	!LO:TX:t=P:problem=nieczytelne źródło	!	!	!
2FF/	e-	1A	.	2A/	.
1F\	-leÿ-	.	.	2F/	e-
*	*	*Xlig	*	*	*
=72-	=72-	=72-	=72-	=72-	=72-
.	.	1G	-leÿ-	1c	-leÿ-
2E\	-ſon	.	.	.	.
1F	.	1A	-ſon	1c	-ſon
=73-	=73-	=73-	=73-	=73-	=73-
*	*	*lig	*	*	*
1FF	kÿ-	1A	Kÿ-	1f	kÿ-
1C	-ri-	1G	.	1e	-ri-
*	*	*Xlig	*	*	*
=74-	=74-	=74-	=74-	=74-	=74-
*	*	*lig	*	*	*
1D	-e	1F	-ri-	1d	-e
2BB-/	.	1G	.	2d\	.
1C/	.	.	.	1e\	.
*	*	*Xlig	*	*	*
=75-	=75-	=75-	=75-	=75-	=75-
*	*	*lig	*	*	*
.	.	1E	.	.	.
1AA	.	.	.	1c	.
.	.	1F	.	.	.
2BB-/	.	.	.	2d\	.
*custos:C	*	*Xlig	*	*	*
=76-	=76-	=76-	=76-	=76-	=76-
*	*	*lig	*	*	*
!LO:LB:g=original	!	!	!	!	!
2C/	.	1E	-e	2e\	.
2AA/	.	.	.	2c/	.
1BB-	.	1D	.	1d	.
*	*	*Xlig	*	*	*
*	*	*custos:F	*	*	*
=77-	=77-	=77-	=77-	=77-	=77-
*	*	*lig	*	*	*
!	!	!LO:PB:g=original	!	!	!
2AA/	.	1F	.	2c/	.
2FF/	.	.	.	1c	.
1GG	.	1D	.	.	.
*	*	*	*	*custos:B	*
!	!	!	!	!LO:LB:g=original	!
!	!	!	!	!LO:SIC:v:s=2B-	!
.	.	.	.	2B/	.
*	*	*Xlig	*	*	*
=78-	=78-	=78-	=78-	=78-	=78-
1AA	.	1C	.	2c/	.
.	.	.	.	2F/	.
*	*	*lig	*	*	*
1GG	.	1D	.	1G	.
=79-	=79-	=79-	=79-	=79-	=79-
1G	.	1C	.	1E	.
*	*	*Xlig	*	*	*
2F\	.	1D	.	2D/	.
1D\	.	.	.	1d\	.
=80-	=80-	=80-	=80-	=80-	=80-
*	*	*lig	*	*	*
.	.	1F	e-	.	.
2F\	.	.	.	2A/	.
!	!	!	!	!LO:SIC:v:s=2B-	!
2G\	.	1E	.	2B/	.
2C/	.	.	.	2c/	.
*	*	*Xlig	*	*	*
=81-	=81-	=81-	=81-	=81-	=81-
*	*	*lig	*	*	*
1D	.	1F	.	1A	.
!	!	!	!	!LO:SIC:v:s=2B-	!
2GG/	.	1G	.	2B/	.
1C/	.	.	.	1G/	.
*	*	*Xlig	*	*	*
=82-	=82-	=82-	=82-	=82-	=82-
*	*	*lig	*	*	*
.	.	1E	-leÿ-	.	.
1AA	.	.	.	2c/	.
.	.	1F	.	2A/	e-
2FF/	e-	.	.	1d\	-leÿ-
*custos:GG	*	*Xlig	*	*	*
=83-	=83-	=83-	=83-	=83-	=83-
*	*	*lig	*	*	*
!LO:LB:g=original	!	!	!	!	!
2GG/	-leÿ-	1E	-ſon	.	.
2AA/	-ſon	.	.	2c/	-ſon
1BB-	.	1D	.	1d	.
*	*	*Xlig	*	*	*
*	*	*custosA	*	*	*
=84-	=84-	=84-	=84-	=84-	=84-
*lig	*	*	*	*	*
!	!	!LO:LB:g=original	!	!	!
1F	kÿ-	1A	Kÿ-	1c	kÿ-
*	*	*lig	*	*	*
1E	.	1c	-ri-	1e	-ri-
*Xlig	*	*	*	*custos:f	*
=85-	=85-	=85-	=85-	=85-	=85-
!	!	!	!	!LO:LB:g=original	!
2D/	.	1d	.	1f	-e
2BB-/	-ri-	.	.	.	.
*	*	*Xlig	*	*	*
*	*	*lig	*	*	*
1D	-e	1d	-e	1f	.
=86-	=86-	=86-	=86-	=86-	=86-
2AA/	.	1c	.	1e	.
2C/	.	.	.	.	.
*	*	*Xlig	*	*	*
1BB-	.	1d	.	1f	.
=87-	=87-	=87-	=87-	=87-	=87-
*	*	*lig	*	*	*
2FF/	.	1A	.	2f\	.
2F\	.	.	.	2c\	.
2E\	.	1G	.	2e\	.
2G\	.	.	.	2d\	.
*	*	*Xlig	*	*	*
=88-	=88-	=88-	=88-	=88-	=88-
*lig	*	*lig	*	*	*
1F	.	1A	.	1f	.
!	!	!LO:SIC:v:s=1B-	!	!	!
1BB-	.	1B	.	2f\	.
.	.	.	.	2d\	.
*Xlig	*	*Xlig	*	*	*
=89-	=89-	=89-	=89-	=89-	=89-
*lig	*	*lig	*	*	*
1F	.	1A	.	2c\	.
.	.	.	.	2d\	.
1C	.	1G	.	2e\	.
.	.	.	.	1g\	.
*Xlig	*	*Xlig	*	*	*
=90-	=90-	=90-	=90-	=90-	=90-
*	*	*lig	*	*	*
1FF	.	1A	.	.	.
.	.	.	.	1f	.
*custos:C	*	*	*	*	*
!LO:LB:g=original	!	!	!	!	!
1C	.	1G	.	.	.
.	.	.	.	2e\	.
*	*	*Xlig	*	*	*
=91-	=91-	=91-	=91-	=91-	=91-
*	*	*lig	*	*	*
2D/	.	1F	.	2f\	.
1BB-	.	.	.	1d	.
.	.	1G	.	.	.
2C/	.	.	.	2e\	.
*	*	*Xlig	*	*	*
*	*	*custos:A	*	*custos:f	*
=92-	=92-	=92-	=92-	=92-	=92-
!	!	!LO:LB:g=original	!	!LO:LB:g=original	!
1FF	.	0A	e-	1f	.
*lig	*	*	*	*	*
1F	.	.	.	2f\	.
.	.	.	.	2c/	.
=93-	=93-	=93-	=93-	=93-	=93-
*	*	*lig	*	*	*
1E	.	1c	.	1e	.
*Xlig	*	*	*	*	*
1D	.	1d	.	1f	.
*	*	*Xlig	*	*	*
=94-	=94-	=94-	=94-	=94-	=94-
*	*	*lig	*	*	*
2AA/	.	1c	.	1e	.
2C/	.	.	.	.	.
1BB-	.	1d	.	1f	.
*	*	*Xlig	*	*	*
=95-	=95-	=95-	=95-	=95-	=95-
*	*	*lig	*	*	*
2FF/	.	1A	.	2f\	.
2F\	.	.	.	2c/	.
2E\	.	1G	.	2e\	.
2G\	.	.	.	2d\	.
*	*	*Xlig	*	*	*
=96-	=96-	=96-	=96-	=96-	=96-
*	*	*lig	*	*	*
1F	.	1A	.	1f	.
!	!	!LO:SIC:v:s=1B-	!	!	!
1BB-	.	1B	.	2f\	.
.	.	.	.	2d\	.
*	*	*Xlig	*	*	*
=97-	=97-	=97-	=97-	=97-	=97-
*	*	*lig	*	*	*
1F	.	1A	.	2c/	.
.	.	.	.	2d\	.
1C	.	1G	.	2e\	.
.	.	.	.	1g\	.
*	*	*Xlig	*	*	*
=98-	=98-	=98-	=98-	=98-	=98-
*	*	*lig	*	*	*
1FF	.	1A	.	.	.
.	.	.	.	1f	.
*custos:C	*	*	*	*	*
!LO:LB:g=original	!	!	!	!	!
1C	.	1G	.	.	.
.	.	.	.	2e\	.
*	*	*Xlig	*	*custos:f	*
=99-	=99-	=99-	=99-	=99-	=99-
*	*	*lig	*	*	*
!	!	!	!	!LO:PB:g=original	!
2D/	.	1F	.	2f\	.
1BB-	.	.	.	1d	.
.	.	1G	.	.	.
2C/	.	.	.	2e\	.
*	*	*Xlig	*	*	*
=100-	=100-	=100-	=100-	=100-	=100-
0FF	.	0A	.	0f	.
*	*	*custos:G	*	*	*
=101-	=101-	=101-	=101-	=101-	=101-
*	*	*lig	*	*	*
!	!	!LO:LB:g=original	!	!	!
1C	.	1G	.	1e	.
1D	.	1F	.	1d	.
*	*	*Xlig	*	*	*
=102-	=102-	=102-	=102-	=102-	=102-
2BB-/	.	1G	.	2d\	.
1C	.	.	.	1e	.
*	*	*lig	*	*	*
.	.	1E	.	.	.
1AA/	.	.	.	1c\	.
=103-	=103-	=103-	=103-	=103-	=103-
.	.	1F	.	.	.
2BB-/	.	.	.	2d\	.
*	*	*Xlig	*	*	*
*	*	*lig	*	*	*
2C/	.	1E	.	2e\	.
2AA/	.	.	.	2c\	.
=104-	=104-	=104-	=104-	=104-	=104-
1BB-	.	1D	.	1d	.
*	*	*Xlig	*	*	*
*	*	*lig	*	*	*
2AA/	.	1F	.	2c\	.
2FF/	.	.	.	1c\	.
=105-	=105-	=105-	=105-	=105-	=105-
1GG	.	1D	.	.	.
!	!	!	!	!LO:SIC:v:s=2B-	!
.	.	.	.	2B/	.
*	*	*Xlig	*	*	*
*	*	*lig	*	*	*
1AA	.	1C	.	2c/	.
.	.	.	.	2F/	.
*	*	*	*	*custos:G	*
=106-	=106-	=106-	=106-	=106-	=106-
!	!	!	!	!LO:LB:g=original	!
1GG	.	1D	.	1G	.
*	*	*Xlig	*	*	*
*custos:G	*	*lig	*	*	*
!LO:PB:g=original	!	!	!	!	!
1G	.	1C	.	1E	.
=107-	=107-	=107-	=107-	=107-	=107-
2F\	.	1D	.	2D/	.
1D	.	.	.	1d	.
*	*	*Xlig	*	*	*
*	*	*lig	*	*	*
.	.	1F	.	.	.
2F\	.	.	.	2A/	.
=108-	=108-	=108-	=108-	=108-	=108-
!	!	!	!	!LO:SIC:v:s=2B-	!
2G\	.	1E	.	2B/	.
2C/	.	.	.	2c\	.
*	*	*Xlig	*	*	*
*	*	*custos:F	*	*	*
*	*	*lig	*	*	*
!	!	!LO:LB:g=original	!	!	!
1D	.	1F	.	1A	.
=109-	=109-	=109-	=109-	=109-	=109-
!	!	!	!	!LO:SIC:v:s=2B-	!
2GG/	.	1G	.	2B/	.
1C	.	.	.	1G	.
*	*	*Xlig	*	*	*
*	*	*lig	*	*	*
.	.	1E	-leÿ-	.	.
1AA/	.	.	.	2c\	.
=110-	=110-	=110-	=110-	=110-	=110-
.	.	1F	.	2A/	.
2FF/	.	.	.	1d	.
*	*	*Xlig	*	*	*
*	*	*lig	*	*	*
2GG/	e-	1E	-ſon	.	.
2AA/	-leÿ-	.	.	2c/	.
=111-	=111-	=111-	=111-	=111-	=111-
2BB-/	-ſon	1D	.	2d\	.
!	!	!	!	!LO:SIC:v:s=2B-	!
2GG/	.	.	.	2B/	.
*	*	*Xlig	*	*	*
1D	.	[1Dl	.	1A	e-
=112-	=112-	=112-	=112-	=112-	=112-
!	!	!	!	!LO:SIC:v:s=2B-	!
2GG/	.	0D_	.	2B/	-leÿ-
2AA/	.	.	.	2c\	-ſon
2BB-/	.	.	.	2d\	.
2C/	.	.	.	2c/	.
=113-	=113-	=113-	=113-	=113-	=113-
0Dl;;	.	0D];	.	0Al	.
==	==	==	==	==	==
*-	*-	*-	*-	*-	*-
!!!system-decoration: [(s1,s2,s3)]
!!!RDF**kern: l = terminal long
!!!ENC: Katarzyna Serwa
!!!END: 2022-01-25
!!!ENC: Anastazja Marusiak
!!!END: 2022-01-20
